X:1
T:37
L:1/8
Q:1/4=100
M:4/4
K:Amin
V:1 treble nm="Piano" snm="Pno."
V:1
"^Moderato" z8 |!p! !breath!c8 | e4 c4 | !breath!B8 | d4 G4 | !breath!e8 | d4 B4 | c8 | z8 | %9
 !breath!e8 | d4 c4 | !breath!B8 | d4 B4 | !breath!A8 | B4 A4 | G4 z4 :: z8 | !breath!d8 | e4 c4 | %19
 !breath!B8 | c4 e4 | !breath!A8 | A4 d4 | B8 | z8 | !breath!c8 | e4 c4 | !breath!d8 | G4 d4 | %29
 !breath!e8 | d4 B4 | c4 z4 :| %32

